assets/wallet-icons/status.svg

<svg viewBox="0 0 109 109" fill="none" xmlns="http://www.w3.org/2000/svg">
    <path fill-rule="evenodd" clip-rule="evenodd" d="M54.7 0C24.7 0 .4 24.3.4 54.3c0 30 24.3 54.3 54.3 54.3 30 0 54.3-24.3 54.3-54.3C108.9 24.3 84.6 0 54.7 0zm-7.4 77.6c-6.9.4-13.9-3.6-14.2-10.1-.4-6.4 4.8-10.7 13.4-11.1 3.2-.2 5.8.1 8.3.3 2.6.3 5.2.5 8.3.3 1.5-.1 3.1-.3 4.7-.6-.8 11-9.2 20.6-20.5 21.2zm18-25.3c-3.4.2-6.1-.1-8.8-.4-2.7-.3-5.5-.6-8.8-.4-1.6.1-3.3.3-4.9.7 1-12 9.8-22.5 21.7-23.1 7.3-.4 14.6 4 15 11.1.4 7-5.1 11.6-14.2 12.1z" fill="#4360DF"/>
</svg>

<svg width="40" height="40" viewBox="0 0 109 109" fill="none" xmlns="http://www.w3.org/2000/svg">
<path fill-rule="evenodd" clip-rule="evenodd" d="M54.7 0C24.7 0 0.400024 24.3 0.400024 54.3C0.400024 84.3 24.7 108.6 54.7 108.6C84.7 108.6 109 84.3 109 54.3C108.9 24.3 84.6 0 54.7 0ZM47.3 77.6C40.4 78 33.4 74 33.1 67.5C32.7 61.1 37.9 56.8 46.5 56.4C49.7 56.2 52.3 56.5 54.8 56.7C57.4 57 60 57.2 63.1 57C64.6 56.9 66.2 56.7 67.8 56.4C67 67.4 58.6 77 47.3 77.6ZM65.3 52.3C61.9 52.5 59.2 52.2 56.5 51.9C53.8 51.6 51 51.3 47.7 51.5C46.1 51.6 44.4 51.8 42.8 52.2C43.8 40.2 52.6 29.7 64.5 29.1C71.8 28.7 79.1 33.1 79.5 40.2C79.9 47.2 74.4 51.8 65.3 52.3Z" fill="#4360DF"/>
</svg>
